!!!COM: Soepratman, Wage Rudolf
!!!CDT: 1903-1938
!!!OTL: National Anthem, India
!!!ENC: Davis, Matthew J.
!!Vocal Line Only
**kern
*clefG2
*k[f#]
*G:
*M4/4
=1-
4r
=2
1r
=3
1r
=4
1r
=5
2r
4r
8.B
16c
=6
4d
[4b
8.b]
16b
8.a
16a
=7
4g
4d
4r
8.d
16d
=8
4e
4d
4c
4B
=9
2A
4r
8.A
16B
=10
4c
[4a
8.a]
16a
8.g
16g
=11
4f
4e
4r
8.d
16d
=12
4f#
4e
4d
4c
=13
2B
4r
8.B
16c
=14
4d
[4b
8.b]
16b
8.a
16a
=15
4g
4d
4r
8.d
16d
=16
4e
4d
4g
4a
=17
2f#
4e
8.e
16e
=18
4cc
4cc
4b
4a
=19
2dd
4g
8.f#
16e
=20
4d
4cc
4b
4a
=21
2g
4r
8.d
16d
=22
4e
8.cc
16cc
4cc
8.cc
16cc
=23
4b
8.g
16g
4g
8.f#
16g
=24
4a
8.dd
16dd
4dd
8.cc#
16cc#
=25
2b
8g
8r
8.d
16d
=26
4e
8.cc
16cc
4cc
8.cc
16cc
=27
4b
8.g
16g
4g
8.f#
16g
=28
4a
4dd
4dd
8.b
16a
=29
2g
4r
!Chorus
8.g
16g
==!|:30
4cc
8.ee
16ee
4ee
8.ee
16ee
=31
4dd
8.b
16b
4b
8.dd
16dd
=32
4cc
8.a
16a
4a
8.dd
16cc
=33
2b
4g
8.g
16g
=34
4cc
8.ee
16ee
4ee
8.ee
16ee
=35
4dd
8.b
16b
4b
8.dd
16dd
=36
4dd
8.cc
16b
4a
8.b
16a
=37
!First Ending
2g
4r
8.g
16g
!Repeat from measure 29 to the second ending
==:|!38
!Second Ending
2g
4r
==|!
*-
